X:3256
T:Come West Along the Road
R:reel
H:See also #422, in G
D:Humdingers: Live in Oslo
Z:id:hn-reel-432
M:C|
K:A
eAcA eAcd|e2ce fgaf|eAcA eAcA|1 Bcde fecd:|2 Bcde fecB||
|:A2EA FAEA|FAEA BecB|A2EA FAEA|1 Bcde fecB:|2 Bcde fecd||


